X:700
T:Johnny O'Leary's
R:Jig
O:Ireland
D:Seamus Creagh/Aidan Coffey
S:Mike Long
Z:Transcription, chords:Mike Long
M:6/8
L:1/8
K:D
E|\
"D"FDD ADD|"D"dcd "(A)"A2G|"D"FDD ADD|"A"EFG EFG|\
"D"FDD ADD|\
"D"dcd "(A)"A2G|"D"FAA "A"EFG|"D"FDD D2:|
|:E|\
"D"(F{G}F{E}F) AFD|"G"GFG d2G|\
"D"~F3 AFD|"A"EFG EFG|\
"D"~F3 AFD|"G"GFG d2G|"D"~F3 "A"EFG|"D"FDD D2:|
